Avidclan_Website/assets/images/l-and-d.svg

<svg width="512" height="512" viewBox="0 0 512 512" fill="none" xmlns="http://www.w3.org/2000/svg">
<g clip-path="url(#clip0_496_1153)">
<path d="M291.055 242.809C292.565 245.762 295.569 247.468 298.675 247.468C299.972 247.468 301.303 247.169 302.541 246.538C303.044 246.282 353.272 220.767 378.044 212.942C382.533 211.517 385.024 206.721 383.599 202.233C382.182 197.744 377.421 195.244 372.89 196.661C346.795 204.913 296.909 230.257 294.793 231.332C290.594 233.465 288.922 238.603 291.055 242.809Z" fill="#0E53BE"/>
<path d="M298.675 145.07C299.972 145.07 301.303 144.771 302.541 144.14C303.044 143.884 353.272 118.369 378.044 110.544C382.533 109.119 385.024 104.323 383.599 99.8352C382.182 95.3462 377.421 92.8462 372.89 94.2632C346.795 102.515 296.909 127.859 294.793 128.934C290.595 131.067 288.922 136.204 291.055 140.411C292.565 143.363 295.569 145.07 298.675 145.07Z" fill="#0E53BE"/>
<path d="M503.465 128.003C498.746 128.003 494.932 131.826 494.932 136.536V469.333C494.932 483.447 483.446 494.933 469.332 494.933H264.534V475.298C276.976 470.946 309.385 460.8 341.333 460.8C415.667 460.8 466.141 477.261 466.644 477.431C469.212 478.284 472.08 477.858 474.324 476.253C476.551 474.649 477.865 472.072 477.865 469.332V93.8702C477.865 89.8682 475.092 86.4033 471.183 85.5413C471.183 85.5413 464.493 84.0483 453.058 81.9483C448.442 81.0953 443.98 84.1673 443.126 88.7922C442.273 93.4342 445.336 97.8802 449.969 98.7332C454.33 99.5352 457.982 100.243 460.798 100.807V457.992C441.462 452.923 398.523 443.733 341.332 443.733C304.153 443.733 267.631 455.944 256.332 460.083C246.288 455.646 215.927 443.733 179.2 443.733C120.422 443.733 72.0045 453.427 51.2006 458.351V100.474C68.2415 96.2842 118.571 85.3363 179.2 85.3363C210.312 85.3363 236.995 95.0212 247.466 99.3992V435.201C247.466 438.273 249.121 441.114 251.792 442.624C254.463 444.143 257.757 444.1 260.394 442.513C261.239 442.01 345.786 391.51 420.828 366.499C424.318 365.33 426.665 362.079 426.665 358.401V8.53687C426.665 5.7379 425.291 3.11792 422.987 1.52293C420.7 -0.0730574 417.765 -0.440055 415.128 0.541938C346.853 26.1497 277.769 69.1404 277.077 69.5674C273.083 72.0674 271.863 77.3323 274.363 81.3263C276.855 85.3203 282.12 86.5403 286.122 84.0403C286.753 83.6393 346.853 46.2466 409.598 21.0138V352.292C351.349 372.533 290.533 405.583 264.532 420.379V93.8702C264.532 90.6362 262.706 87.6833 259.813 86.2333C258.345 85.5083 223.376 68.2704 179.2 68.2704C102.093 68.2704 42.8127 84.9533 40.3207 85.6693C36.6597 86.7103 34.1337 90.0642 34.1337 93.8702V469.334C34.1337 472.005 35.3967 474.531 37.5217 476.144C39.0237 477.279 40.8327 477.868 42.6677 477.868C43.4527 477.868 44.2377 477.757 45.0057 477.535C45.5947 477.373 104.602 460.801 179.2 460.801C210.397 460.801 237.055 470.512 247.466 474.872V494.934H42.6677C28.5538 494.934 17.0679 483.448 17.0679 469.334V136.537C17.0679 131.827 13.2449 128.004 8.53495 128.004C3.82498 128.004 0.00201416 131.827 0.00201416 136.537V469.334C0.00201416 492.86 19.1419 512.001 42.6687 512.001H469.332C492.858 512.001 511.999 492.861 511.999 469.334V136.537C511.998 131.826 508.184 128.003 503.465 128.003Z" fill="#0E53BE"/>
<path d="M291.055 191.61C292.565 194.563 295.569 196.269 298.675 196.269C299.972 196.269 301.303 195.97 302.541 195.339C303.044 195.083 353.272 169.568 378.044 161.743C382.533 160.318 385.024 155.522 383.599 151.034C382.182 146.545 377.421 144.045 372.89 145.462C346.795 153.714 296.909 179.058 294.793 180.133C290.594 182.266 288.922 187.404 291.055 191.61Z" fill="#0E53BE"/>
<path d="M291.055 294.009C292.565 296.962 295.569 298.668 298.675 298.668C299.972 298.668 301.303 298.369 302.541 297.738C303.044 297.482 353.272 271.967 378.044 264.142C382.533 262.717 385.024 257.921 383.599 253.433C382.182 248.944 377.421 246.444 372.89 247.861C346.795 256.113 296.909 281.457 294.793 282.532C290.594 284.665 288.922 289.803 291.055 294.009Z" fill="#0E53BE"/>
<path d="M206.746 158.365C154.054 146 94.1753 161.753 91.6583 162.427C87.1103 163.647 84.4054 168.323 85.6254 172.88C86.6494 176.694 90.0963 179.202 93.8603 179.202C94.5943 179.202 95.3363 179.109 96.0793 178.913C96.6513 178.751 154.302 163.587 202.856 174.979C207.421 176.046 212.038 173.204 213.113 168.613C214.187 164.031 211.337 159.44 206.746 158.365Z" fill="#0E53BE"/>
<path d="M206.746 209.564C154.054 197.208 94.1753 212.952 91.6583 213.626C87.1103 214.846 84.4054 219.523 85.6254 224.079C86.6494 227.893 90.0963 230.402 93.8603 230.402C94.5943 230.402 95.3363 230.308 96.0793 230.112C96.6513 229.95 154.302 214.786 202.856 226.178C207.421 227.245 212.038 224.403 213.113 219.812C214.187 215.23 211.337 210.639 206.746 209.564Z" fill="#0E53BE"/>
<path d="M291.055 345.209C292.565 348.162 295.569 349.868 298.675 349.868C299.972 349.868 301.303 349.569 302.541 348.938C303.044 348.682 353.272 323.167 378.044 315.342C382.533 313.917 385.024 309.121 383.599 304.633C382.182 300.145 377.421 297.644 372.89 299.061C346.795 307.313 296.909 332.657 294.793 333.732C290.594 335.865 288.922 341.003 291.055 345.209Z" fill="#0E53BE"/>
<path d="M206.746 260.764C154.054 248.408 94.1753 264.143 91.6583 264.826C87.1103 266.046 84.4054 270.723 85.6254 275.279C86.6494 279.093 90.0963 281.611 93.8603 281.611C94.5943 281.611 95.3363 281.509 96.0793 281.312C96.6513 281.15 154.302 265.986 202.856 277.378C207.421 278.445 212.038 275.603 213.113 271.012C214.187 266.43 211.337 261.839 206.746 260.764Z" fill="#0E53BE"/>
<path d="M206.746 363.163C154.054 350.798 94.1753 366.551 91.6583 367.225C87.1103 368.445 84.4054 373.122 85.6254 377.678C86.6494 381.492 90.0963 384.01 93.8603 384.01C94.5943 384.01 95.3363 383.908 96.0793 383.711C96.6513 383.549 154.302 368.385 202.856 379.777C207.421 380.835 212.038 378.002 213.113 373.411C214.187 368.829 211.337 364.238 206.746 363.163Z" fill="#0E53BE"/>
<path d="M206.746 311.963C154.054 299.599 94.1753 315.342 91.6583 316.025C87.1103 317.245 84.4054 321.922 85.6254 326.478C86.6494 330.292 90.0963 332.81 93.8603 332.81C94.5943 332.81 95.3363 332.708 96.0793 332.511C96.6513 332.349 154.302 317.185 202.856 328.577C207.421 329.644 212.038 326.802 213.113 322.211C214.187 317.629 211.337 313.038 206.746 311.963Z" fill="#0E53BE"/>
</g>
<defs>
<clipPath id="clip0_496_1153">
<rect width="512" height="512" fill="white"/>
</clipPath>
</defs>
</svg>

<?xml version="1.0"?>
<svg xmlns="http://www.w3.org/2000/svg" xmlns:xlink="http://www.w3.org/1999/xlink" xmlns:svgjs="http://svgjs.com/svgjs" version="1.1" width="512" height="512" x="0" y="0" viewBox="0 0 512.004 512.004" style="enable-background:new 0 0 512 512" xml:space="preserve" class=""><g>
<g xmlns="http://www.w3.org/2000/svg">
	<g>
		<g>
			<path d="M291.057,242.811c1.51,2.953,4.514,4.659,7.62,4.659c1.297,0,2.628-0.299,3.866-0.93     c0.503-0.256,50.731-25.771,75.503-33.596c4.489-1.425,6.98-6.221,5.555-10.709c-1.417-4.489-6.178-6.989-10.709-5.572     c-26.095,8.252-75.981,33.596-78.097,34.671C290.596,233.467,288.924,238.605,291.057,242.811z" fill="#007bfc" data-original="#000000" style="" class=""/>
			<path d="M298.677,145.071c1.297,0,2.628-0.299,3.866-0.93c0.503-0.256,50.731-25.771,75.503-33.596     c4.489-1.425,6.98-6.221,5.555-10.709c-1.417-4.489-6.178-6.989-10.709-5.572c-26.095,8.252-75.981,33.596-78.097,34.671     c-4.198,2.133-5.871,7.27-3.738,11.477C292.567,143.364,295.571,145.071,298.677,145.071z" fill="#007bfc" data-original="#000000" style="" class=""/>
			<path d="M503.469,128.004c-4.719,0-8.533,3.823-8.533,8.533v332.8c0,14.114-11.486,25.6-25.6,25.6h-204.8v-19.635     c12.442-4.352,44.851-14.498,76.8-14.498c74.334,0,124.809,16.461,125.312,16.631c2.568,0.853,5.436,0.427,7.68-1.178     c2.227-1.604,3.541-4.181,3.541-6.921V93.871c0-4.002-2.773-7.467-6.682-8.329c0,0-6.69-1.493-18.125-3.593     c-4.617-0.853-9.079,2.219-9.933,6.844c-0.853,4.642,2.21,9.088,6.844,9.941c4.361,0.802,8.013,1.51,10.829,2.074v357.188     c-19.337-5.069-62.276-14.259-119.467-14.259c-37.18,0-73.702,12.211-85.001,16.35c-10.044-4.437-40.405-16.35-77.133-16.35     c-58.778,0-107.196,9.694-128,14.618V100.475c17.041-4.19,67.371-15.138,128-15.138c31.113,0,57.796,9.685,68.267,14.063v335.804     c0,3.072,1.655,5.914,4.326,7.424c2.671,1.519,5.965,1.476,8.602-0.111c0.845-0.503,85.393-51.004,160.435-76.015     c3.49-1.169,5.837-4.42,5.837-8.098V8.537c0-2.799-1.374-5.419-3.678-7.014c-2.287-1.596-5.222-1.963-7.859-0.981     C346.856,26.15,277.771,69.141,277.079,69.568c-3.994,2.5-5.214,7.765-2.714,11.759c2.492,3.994,7.757,5.214,11.759,2.714     c0.631-0.401,60.732-37.794,123.477-63.027v331.281c-58.249,20.241-119.066,53.291-145.067,68.087V93.871     c0-3.234-1.826-6.187-4.719-7.637c-1.468-0.725-36.437-17.963-80.614-17.963c-77.107,0-136.388,16.683-138.88,17.399     c-3.661,1.041-6.187,4.395-6.187,8.201v375.467c0,2.671,1.263,5.197,3.388,6.81c1.502,1.135,3.311,1.724,5.146,1.724     c0.785,0,1.57-0.111,2.338-0.333c0.589-0.162,59.597-16.734,134.195-16.734c31.198,0,57.856,9.711,68.267,14.071v20.062h-204.8     c-14.114,0-25.6-11.486-25.6-25.6v-332.8c0-4.71-3.823-8.533-8.533-8.533s-8.533,3.823-8.533,8.533v332.8     c0,23.526,19.14,42.667,42.667,42.667h426.667c23.526,0,42.667-19.14,42.667-42.667v-332.8     C512.002,131.827,508.188,128.004,503.469,128.004z" fill="#007bfc" data-original="#000000" style="" class=""/>
			<path d="M291.057,191.611c1.51,2.953,4.514,4.659,7.62,4.659c1.297,0,2.628-0.299,3.866-0.93     c0.503-0.256,50.731-25.771,75.503-33.596c4.489-1.425,6.98-6.221,5.555-10.709c-1.417-4.489-6.178-6.989-10.709-5.572     c-26.095,8.252-75.981,33.596-78.097,34.671C290.596,182.267,288.924,187.405,291.057,191.611z" fill="#007bfc" data-original="#000000" style="" class=""/>
			<path d="M291.057,294.011c1.51,2.953,4.514,4.659,7.62,4.659c1.297,0,2.628-0.299,3.866-0.93     c0.503-0.256,50.731-25.771,75.503-33.596c4.489-1.425,6.98-6.221,5.555-10.709c-1.417-4.489-6.178-6.989-10.709-5.572     c-26.095,8.252-75.981,33.596-78.097,34.671C290.596,284.667,288.924,289.805,291.057,294.011z" fill="#007bfc" data-original="#000000" style="" class=""/>
			<path d="M206.748,158.366c-52.693-12.365-112.572,3.388-115.089,4.062c-4.548,1.22-7.253,5.896-6.033,10.453     c1.024,3.814,4.471,6.323,8.235,6.323c0.734,0,1.476-0.094,2.219-0.29c0.572-0.162,58.223-15.326,106.778-3.934     c4.565,1.067,9.182-1.775,10.257-6.366C214.189,164.032,211.339,159.441,206.748,158.366z" fill="#007bfc" data-original="#000000" style="" class=""/>
			<path d="M206.748,209.566c-52.693-12.356-112.572,3.388-115.089,4.062c-4.548,1.22-7.253,5.897-6.033,10.453     c1.024,3.814,4.471,6.323,8.235,6.323c0.734,0,1.476-0.094,2.219-0.29c0.572-0.162,58.223-15.326,106.778-3.934     c4.565,1.067,9.182-1.775,10.257-6.366C214.189,215.232,211.339,210.641,206.748,209.566z" fill="#007bfc" data-original="#000000" style="" class=""/>
			<path d="M291.057,345.211c1.51,2.953,4.514,4.659,7.62,4.659c1.297,0,2.628-0.299,3.866-0.93     c0.503-0.256,50.731-25.771,75.503-33.596c4.489-1.425,6.98-6.221,5.555-10.709c-1.417-4.488-6.178-6.989-10.709-5.572     c-26.095,8.252-75.981,33.596-78.097,34.671C290.596,335.867,288.924,341.005,291.057,345.211z" fill="#007bfc" data-original="#000000" style="" class=""/>
			<path d="M206.748,260.766c-52.693-12.356-112.572,3.379-115.089,4.062c-4.548,1.22-7.253,5.897-6.033,10.453     c1.024,3.814,4.471,6.332,8.235,6.332c0.734,0,1.476-0.102,2.219-0.299c0.572-0.162,58.223-15.326,106.778-3.934     c4.565,1.067,9.182-1.775,10.257-6.366C214.189,266.432,211.339,261.841,206.748,260.766z" fill="#007bfc" data-original="#000000" style="" class=""/>
			<path d="M206.748,363.166c-52.693-12.365-112.572,3.388-115.089,4.062c-4.548,1.22-7.253,5.897-6.033,10.453     c1.024,3.814,4.471,6.332,8.235,6.332c0.734,0,1.476-0.102,2.219-0.299c0.572-0.162,58.223-15.326,106.778-3.934     c4.565,1.058,9.182-1.775,10.257-6.366C214.189,368.832,211.339,364.241,206.748,363.166z" fill="#007bfc" data-original="#000000" style="" class=""/>
			<path d="M206.748,311.966c-52.693-12.365-112.572,3.379-115.089,4.062c-4.548,1.22-7.253,5.897-6.033,10.453     c1.024,3.814,4.471,6.332,8.235,6.332c0.734,0,1.476-0.102,2.219-0.299c0.572-0.162,58.223-15.326,106.778-3.934     c4.565,1.067,9.182-1.775,10.257-6.366C214.189,317.632,211.339,313.041,206.748,311.966z" fill="#007bfc" data-original="#000000" style="" class=""/>
		</g>
	</g>
</g>
<g xmlns="http://www.w3.org/2000/svg">
</g>
<g xmlns="http://www.w3.org/2000/svg">
</g>
<g xmlns="http://www.w3.org/2000/svg">
</g>
<g xmlns="http://www.w3.org/2000/svg">
</g>
<g xmlns="http://www.w3.org/2000/svg">
</g>
<g xmlns="http://www.w3.org/2000/svg">
</g>
<g xmlns="http://www.w3.org/2000/svg">
</g>
<g xmlns="http://www.w3.org/2000/svg">
</g>
<g xmlns="http://www.w3.org/2000/svg">
</g>
<g xmlns="http://www.w3.org/2000/svg">
</g>
<g xmlns="http://www.w3.org/2000/svg">
</g>
<g xmlns="http://www.w3.org/2000/svg">
</g>
<g xmlns="http://www.w3.org/2000/svg">
</g>
<g xmlns="http://www.w3.org/2000/svg">
</g>
<g xmlns="http://www.w3.org/2000/svg">
</g>
</g></svg>
